X: 1
T: Derek and Maureen Haynes for Karin's Strathspey (ABBA)
C: Pat Clark
M: C
R: Strathspey
S: Kate Carpenter <katecarpenter:hotmail.co.uk> 2013-4-26
N: Modified by John Chambers to better fit onto a medley page with other tunes.
K: Dm
"A7"A2 |\
"Dm"D2F2A2d2 | "A7"^c>A =B>c "Dm"d2D2 |\
[1 "Gm"B>A G<B "Dm"A>G F<A | "Gm"G>F E>D "A7"^C>=B, (3A,=B,^C :|\
[2 "A7"e>d ^c<e "Dm"f>e "Gm"(3d=cB | "A7"A2^c2"Dm"d2 "Fine"|]
|: "C7"=c2 |\
"F"f2c2 A>GF2 | "C7"E>F G<E "F"F>GA2 |\
[1,3 "C7"G>A B<G "F"A>Bc2 | "G7"=B>c (3dcB "C7"c2c2 :|\
[2,4 "A7"G>F E<=C "Dm"(3DFA "Gm"(3d=cB | "A7"A2^c2"Dm"d2 "d.C.":|
